X:1
T:Morecambe, 10.10.10.10
T:Morecambe, 10.10.10.10
T:Frederick Cook Atkinson, 1870
T:Public Domain Courtesy of the Cyber Hymnal™
C:Frederick Cook Atkinson, 1870
Z:Public Domain
Z:Courtesy of the Cyber Hymnal™
%%score ( 1 2 ) ( 3 4 )
L:1/8
M:4/4
K:C
V:1 treble 
V:2 treble 
V:3 bass 
V:4 bass 
V:1
 [CE]4 [CE]2 [CE]2 | [DF]4 [CE]4 | [CA]2 [CG]2 [CF]2 [B,F]2 | [CE]8 | [Ec]4 [^DB]2 [^FA]2 | %5
 G4 [GA]4 | [GB]2 [DG]2 [EA]2 [^FA]2 | G8 | [DG]4 [DG]2 [DG]2 | [FB]4 [FA]4 | %10
 [FG]2 [FA]2 [FB]2 [Fc]2 | [Fd]8 | [Ee]4 [Fd]2 [Gc]2 | [GB]2 [FA]2 [EG]2 [Fc]2 | [EG]4 [FG]4 | %15
 [EG]8 |] %16
V:2
 x8 | x8 | x8 | x8 | x8 | (E2 G2) x4 | x8 | x8 | x8 | x8 | x8 | x8 | x8 | x8 | x8 | x8 |] %16
V:3
 [C,G,]4 [C,G,]2 [C,G,]2 | [B,,G,]4 [C,G,]4 | F,2 [E,G,]2 [D,A,]2 [G,,G,]2 | [C,G,]8 | %4
 (A,2 G,2) [B,,^F,]2 [^D,B,]2 | [E,B,]4 [E,^C]4 | [D,D]2 [D,B,]2 [D,C]2 [D,C]2 | [G,B,]8 | %8
 [G,B,]4 [G,B,]2 [G,B,]2 | [G,D]4 [G,C]4 | [G,B,]2 [G,C]2 [G,D]2 [G,A,]2 | [G,B,]8 | %12
 (C2 A,2) [D,B,]2 [E,C]2 | [F,C]2 [F,C]2 [G,C]2 [A,C]2 | [G,C]4 [G,B,]4 | [C,C]8 |] %16
V:4
 x8 | x8 | x8 | x8 | A,,4 x4 | x8 | x8 | x8 | x8 | x8 | x8 | x8 | C,4 x4 | x8 | x8 | x8 |] %16

